U-commodities/img/icons/burger.svg

<svg width="24" height="25" viewBox="0 0 24 25" fill="none" xmlns="http://www.w3.org/2000/svg">
<path d="M2 5.5H22V7.5H2V5.5Z" fill="#14181F"/>
<path d="M2 11.5H22V13.5H2V11.5Z" fill="#14181F"/>
<path d="M22 17.5H2V19.5H22V17.5Z" fill="#14181F"/>
</svg>

<svg width="24" height="25" fill="none" xmlns="http://www.w3.org/2000/svg"><path d="M2 5.5h20v2H2v-2zm0 6h20v2H2v-2zm20 6H2v2h20v-2z" fill="#14181F"/></svg>
